X: 4
T: Superfly
M: 4/4
L: 1/8
K: Bmin
Bfff gfeg | f3 f2 edB | eee f edce | deBA BAFA |
Bfff gfeg | f2zff edf | eee f edce | deBA Bzzz |
Bfff gfeg | f3 f2 edB | eee f edce | deBA BAFA |
Bfff gfeg | fzzff edf | eee f edce | deBA BzBA |
Bc de ff Bc | defd g2 Bc | defd a3 f | gfeg fedc |
Bc de ff Bc | defd gz Bc | defd a2 ab | gfeg f3z |
Bc de ff Bc | defd g2 Bc | defd a3 f | gfeg fedc |
Bc de ff Bc | defd gz Bc | defd a3 b | gfeg fzzz |
Bfff gfeg | f2zff edf | eee f edce | deBA BAFA |
Bfff gfeg | f3 f2 edB | eee f edce | deBA Bzzz |
Bfff gfeg | f3 f2 edf | eee f edce | deBA BAFA |
Bfff gfeg | f3 f2 edf | eee f edce | deBA BzBA |
Bc de ff Bc | defd gz Bc | deed a2 ab | gfeg fedc |
Bc de ff Bc | defd gz Bc | defd a3 b | gfeg f3z |
Bc de ff Bc | defd g2 Bc | deed a2 ab | gfeg fedc |
Bc de ff Bc | defd gz Bc | defd azzz |
gfe gfed f | ed BA B2 dd |AF EF A B B4|
